X: 1
T: The Knotted Piece of String
C:\251 George Meikle
B: George Meikle "Originally Mine" p.20
R: strathspey
Z: 2010 John Chambers <jc:trillian.mit.edu>
M: 4/4
L: 1/8
K: Bb
DC |:\
"Bb"B,CDE "A/F7"F2Bc | "Gm"defd "D/Bb7"B2BA |\
"Eb"G2B2 "D/Bb"F2B2 | "E/C7"cBAG "F7"F2DC |
"Bb"B,CDE "A/F7"F2Bc | "Gm"defd "Bb"B2"D/Bb7"BA |\
"Eb"G2B2 "F7"AFdc |1 "Bb"B4 "Bb"B2 "A/F7"DC :|2 "Bb"B4 "Bb"B2 "A/F7"de ||
|: "Bb"f2fe "Gm"d2cB | "E/C7"cBAG "F7"F2 DC | "Bb"B,CDE "Gm"F2B2 |
[1 "E/C7"c=Bcd "F7"c2de | "Bb"f2fe "Gm"d2cd | "C7"edcB "D/Bb7"G3F |\
"Eb"G2B2 "F7"AFdc | "Eb"B4 "Bb"B2"A/F7"de :|
[2 "E/C7"c=Bcd "F7"c2DC | "Bb"B,CDE "A/F7"F2Bc | "Gm"defd "Bb"B2"D/Bb7"BA |\
"Eb"G2B2 "F7"AFdc | "Eb"B4 "Bb"B4 |]
%%begintext align
Composed for Jonathan & Mary Ross's Ruby Wedding anniversary in 1992 and used as the original  tune
for John Drewry's "Boyndie Knot". Jonathan, who ran a well known tailor and kilt-making business in
Inverness, made many kilts and outfits for country dancers and the tune title refers to  his  habit
of using a bit of suitably knotted string when he measured folk up for a new kilt or jacket.
%%endtext

%%sep 1 1 500
%%sep 1 1 500

